X: 12023
T: Erddigan Y Pibydd Goch
R: waltz
M: 3/4
K: Fmajor
D>E F>G A2|d4 c2|d2 A2 F2|G2 E>F G>E|
D>E F>G A2|d4 c2|d2 A2 B2|A>G F>E D2:|
F2 F>G A>B|A2 d4|G2 G>A B>c|A2 d4|
d2 A2 B2|A2 G>A F2|A2 F>G A>F|G2 E>F G>E|
F2 D>E F>A|G>E F>D E>^C|D>E F>G A2|d4 c2|
d2 A2 B2|A>G F>E D2:|

